X:1
T:Taken from the county jail
T:Taken from the county jail 
T:Fragment av "The Mikado"
T:Arthur Sullivan
C:Arthur Sullivan
%%score 1 [ 2 3 ] { ( 4 6 ) | 5 }
L:1/8
M:4/4
K:Ab
V:1 treble-8 nm="Tenor"
V:2 treble-8 nm="Tenor"
V:3 bass nm="Bass"
V:4 treble nm="Piano"
V:6 treble 
V:5 bass 
V:1
 z8 |"^Ko-Ko"!mp! A G A G F2 F2 | F4 z4 | G F G F E2 E2 | F2 E2 z4 | c B c B A2 A2 | A4 z4 | %7
w: |Ta- ken from the coun- ty|jail|By a set of cu- rious|chan- ces,|Lib- er- a- ted then on|bail|
 G A G A G2 G2 | G2 C2 z4 | A G F G A2 A2 | G4 z4 | F =E =D E F2 F2 | =E2 C2 z4 | A G A G =E2 G2 | %14
w: On my own re- cog- ni-|zan- ces;|Waf- ted by a fav- 'ring|gale|As one some- times is in|tran- ces,|To a height that few can|
 F4 z4 | B =A B A c2 B2 | G2 B2 z4 | d c d c d2 A2 | G4 z4 | d c d c d2 A2 | G2 B2 z2 E E | %21
w: scale.|Save by long and wea- ry|dan- ces;|Sure- ly, nev- er had a|male|Un- der such like cir- cum-|stan- ces So ad-|
 _c3 c c3 c | _c4 c2 c2 | B2 (FG) A2 (GF) | (GF) E2 z4 | A G A G F2 F2 | F4 z4 | G F G F E2 E2 | %28
w: ven- tur- ous a|tale, Which may|rank with _ most ro- *|man- * ces.|Ta- ken from the coun- ty|jail|By a set of cu- rious|
 F2 E2 z4 | c B c B A2 A2 | A4 B3 A | c2 E2 G2 B2 | A4 z4 |] %33
w: chan- ces,|Sure- ly, nev- er had a|male So ad-|ven- tur- ous a|tale.|
V:2
 z8 | z8 | z8 | z8 | z8 | z8 | z8 | z8 | z8 | z8 | z8 | z8 | z8 | z8 | z8 | z8 | z8 | z8 | z8 | %19
w: |||||||||||||||||||
 z8 | z8 | z8 | z8 | z8 | z8 | z8 |!p! [Ac] [Ac] [Ac] [Ac] [Ac]2 [Ac]2 | [Gd]2 z2 z4 | %28
w: |||||||Ta- ken from the coun- ty|jail,|
 [Gd] [Gd] [Gd] [Gd] [Gd]2 [Gd]2 | [_Gc]2 z2 [c_g] [cg] [cg] [cg] | [df]2 [df]2 [d_f]2 [df] [df] | %31
w: Li- ber- a- ted then on|bail, Sure- ly, ne- ver|had a male So ad-|
 [ce]2 [ce]2 [de]2 [de]2 | [ce]4 z4 |] %33
w: ven- tur- ous a|tale.|
V:3
 z8 | z8 | z8 | z8 | z8 | z8 | z8 | z8 | z8 | z8 | z8 | z8 | z8 | z8 | z8 | z8 | z8 | z8 | z8 | %19
w: |||||||||||||||||||
 z8 | z8 | z8 | z8 | z8 | z8 | z8 |!p! [A,,E,] [A,,E,] [A,,E,] [A,,E,] [E,,E,]2 [E,,E,]2 | %27
w: |||||||Ta- ken from the coun- ty|
 [B,,E,]2 z2 z4 | [B,,E,] [B,,E,] [B,,E,] [B,,E,] [E,,E,]2 [E,,E,]2 | %29
w: jail,|Li- ber- a- ted then on|
 [A,,E,]2 z2 [A,,A,] [A,,A,] [A,,A,] [A,,A,] | [D,A,]2 [D,A,]2 [D,A,]2 [D,A,] [D,A,] | %31
w: bail, Sure- ly, ne- ver|had a male So ad-|
 [E,A,]2 [E,A,]2 [E,G,]2 [E,G,]2 | [A,,A,]4 z4 |] %33
w: ven- tur- ous a|tale.|
V:4
!p! z2 [CE]2 [CE][CE][CE] z | z2 [CE]2 [CE][CE][CE] z | z2 [CE]2 [CE][CE][CE] z | %3
 z2 [G,DE]2 [G,DE][G,DE][G,DE] z | z2 [G,DE]2 [G,DE][G,DE][G,DE] z | %5
 z2 [A,CE]2 [A,CE][A,CE][A,CE] z | z2 [A,CF]2 [A,CF][A,CF][A,CF] z | %7
 z2 [G,=B,F]2 [G,B,F][G,B,F][G,B,F] z | z2 [G,C=E]2 [G,CE][G,CE][G,CE] z | %9
 z2 [=B,FA]2 [B,FA][B,FA][B,FA] z | z2 [C=EG]2 [CEG][CEG][CEG] z | %11
 z2 [G,=B,F]2 [G,B,F][G,B,F][G,B,F] z | z2 [G,C=E]2 [G,CE][G,CE][G,CE] z | %13
 z2 [A,=EA]2 [A,EA][A,EA][A,EG] z | z2 [A,F]2 [A,DF][A,DF][A,DF] z | %15
 z2 [B,F]2 [B,F][B,F][B,^FB] z | z2 [B,GB]2 [B,GB][B,GB][B,GB] z | %17
 z2 [A,DA]2 [A,DA][A,DA][A,DA] z | z2 [B,DG]2 [B,DG][B,DG][B,DG] z | %19
 z2 [A,DA]2 [A,DA][A,DA][A,DA] z | z2 [B,DG]2 [B,DG][B,DG][B,DG] z | z2 [_CE_c]2 z2 [CE__B]2 | %22
 z2 [_C_FA]2 z2 [CA_c]2 | z2 [B,FB]2 z2 [B,=DB]2 | [B,EG]2 E4 E2 | %25
 .[A,CE].[A,CE].[A,CE].[A,CE] .[A,CE]2 .[A,CE]2 | .[A,CE].[A,CE].[A,CE].[A,CE] .[A,CE]2 .[A,CE]2 | %27
 .[G,DG].[G,DF].[G,DG].[G,DF] .[G,DE]2 .[G,DE]2 | F2 E2 .[G,DE]2 .[G,DE]2 | %29
 .[A,C_G].[A,CG].[A,CG].[A,CG] .[A,CG]2 .[A,CG]2 | .[A,DF] z .[A,DF] z .[A,D_F] z .[A,DF] z | %31
 .[A,CE] z .[A,CE] z .[DEG] z .[DEG] z | [CEA]4 z4 |] %33
V:5
 A,,2 E,4 E,,2 | A,,2 E,4 E,,2 | A,,2 E,4 E,,2 | B,,2 z2 z2 E,,2 | B,,2 z2 z2 E,,2 | %5
 A,,2 z2 z2 A,,2 | F,,2 z2 z2 F,2 | =D,2 z2 z2 G,,2 | C,2 z2 z2 C,2 | [C,,C,]2 z2 z2 [C,,C,]2 | %10
 [C,,C,]2 z2 z2 [C,,C,]2 | [C,,C,]2 z2 z2 [C,,C,]2 | [C,,C,]2 z2 z2 [C,,C,]2 | %13
 [C,,C,]2 z2 z2 [C,,C,]2 | [D,,D,]2 z2 z2 [D,,D,]2 | [=D,,=D,]2 z2 z2 [D,,D,]2 | %16
 [E,,E,]2 z2 z2 [E,,E,]2 | (([_F,,_F,]8 | [E,,E,]2)) z2 z2 [E,,E,]2 | (([_F,,_F,]8 | %20
 [E,,E,]2)) z2 z2 [E,,E,]2 | [A,,A,]2 z2 [_G,,_G,]2 z2 | [_F,,_F,]2 z2 [E,,E,]2 z2 | %23
 [=D,,=D,]2 z2 [B,,,B,,]2 z2 | ([E,,E,]2 [D,,D,]2 [C,,C,]2 [B,,,B,,]2) | %25
 [A,,,A,,]2 z2 z2 [E,,E,]2 | [A,,E,]2 z2 z2 [E,,E,]2 | [B,,E,]2 z2 z2 [E,,E,]2 | %28
 [B,,E,]2 z2 z2 [E,,E,]2 | [A,,E,]2 z2 z2 [A,,,A,,]2 | [D,,D,]2 z2 [D,,D,]2 z2 | %31
 [E,,E,]2 z2 [E,,E,]2 z2 | [A,,,A,,]4 z4 |] %33
V:6
 x8 | x8 | x8 | x8 | x8 | x8 | x8 | x8 | x8 | x8 | x8 | x8 | x8 | x8 | x8 | x8 | x8 | x8 | x8 | %19
 x8 | x8 | x8 | x8 | x8 | x2 ([E,G,]2 [F,A,]2 [G,_D]2) | x8 | x8 | x8 | %28
 .[G,D].[G,D].[G,D].[G,D] x4 | x8 | x8 | x8 | x8 |] %33

